**kern	**kern	**dynam
*part1	*part1	*part1
*staff2	*staff1	*
*I"Piano	*	*
*clefF4	*clefG2	*
*k[]	*k[]	*
=1	=1	=1
8GG	8r	.
(8G'L 8d	(8f'L 8g	pp
8G' 8c	8f' 8g	pp
8G'J) 8B	8f'J) 8g	pp
=	=	=
2c	2e 2g	.
=	=	=
8r	(8ccL 8ccc	pp
8GL 8d 8f	8b 8bb	.
8G 8c 8f	8a 8aa	.
8GJ 8B 8f	8gJ) 8gg	.
=	=	=
!	!LO:TX:b:i:t=dim.	!
2c 2e	(8gL 8gg	.
.	8cc 8ccc	.
.	8.ee^ 8.eee	.
.	16ccJk) 16ccc	.
=	=	=
8r	(8ccL 8ccc	.
8GL 8d 8f	8b 8bb	.
8G 8c 8f	8a 8aa	.
8GJ 8B 8f	8gJ) 8gg	.
=	=	=
[2c [2e	(((2g 2gg	pp
=	=	=
4c] 4e]	4cc))) 4ccc	ppp
4r	4r	.
==	==	==
*-	*-	*-
!!!system-decoration: {(s1,s2)}
